svgs/sharp-solid/scanner-gun.svg

<svg xmlns="http://www.w3.org/2000/svg" viewBox="0 0 576 512"><!--! Font Awesome Pro 6.6.0 by @fontawesome - https://fontawesome.com License - https://fontawesome.com/license (Commercial License) Copyright 2024 Fonticons, Inc. --><path d="M576 32L416 32l0 64 160 0 0-64zM261.4 256l90.6 0 0-224L112 32C50.1 32 0 82.1 0 144c0 50.9 33.9 93.8 80.3 107.5L0 392l136 80L261.4 256zM416 192l0 64 160 0 0-64-160 0zM576 416l-160 0 0 64 160 0 0-64zM416 128l0 32 160 0 0-32-160 0zM576 288l-160 0 0 32 160 0 0-32zM416 352l0 32 160 0 0-32-160 0z"/></svg>

<svg xmlns="http://www.w3.org/2000/svg" viewBox="0 0 576 512"><!--! Font Awesome Pro 6.4.2 by @fontawesome - https://fontawesome.com License - https://fontawesome.com/license (Commercial License) Copyright 2023 Fonticons, Inc. --><path d="M576 32H416V96H576V32zM261.4 256H352V32H112C50.1 32 0 82.1 0 144c0 50.9 33.9 93.8 80.3 107.5L0 392l136 80L261.4 256zM416 192v64H576V192H416zM576 416H416v64H576V416zM416 128v32H576V128H416zM576 288H416v32H576V288zM416 352v32H576V352H416z"/></svg>
